shader_type canvas_item;

render_mode unshaded;

void vertex() {
}

void fragment() {

}

//void light() {
//	// Called for every pixel for every light affecting the CanvasItem.
//	// Uncomment to replace the default light processing function with this one.
//}
